frontend/public/svg/weather/snow.svg

<svg width="161" height="149" viewBox="0 0 161 149" fill="none" xmlns="http://www.w3.org/2000/svg">
<g clip-path="url(#clip0)">
<path d="M99.94 37.7788C101.179 36.9171 102.258 36.138 103.365 35.3996C114.55 27.9403 126.632 26.4571 139.372 30.3393C154.835 35.0518 161.184 50.2574 159.875 62.4909C158.765 72.8793 153.64 81.2627 146.127 88.2645C143.205 90.989 139.442 92.4986 135.6 93.2698C128.59 94.6757 121.528 95.9444 114.429 96.7556C96.3407 98.8231 78.1431 98.7299 59.9692 99.016C51.427 99.1473 42.9044 98.9989 34.5643 96.8626C32.0742 96.2246 29.5874 95.523 27.1754 94.6435C16.5749 90.7764 9.09396 83.6754 5.05089 73.0999C-1.30377 56.4801 -0.425766 40.2616 9.2014 25.236C17.2304 12.7046 28.7845 3.99328 43.6447 1.43093C62.3385 -1.79234 78.1503 4.25928 90.2893 19.0347C94.2706 23.8991 97.2504 29.5025 99.0579 35.5227C99.2752 36.2341 99.5987 36.9138 99.94 37.7788ZM63.9008 89.0672C68.275 88.8973 72.6548 88.8047 77.024 88.5422C91.6997 87.6646 106.362 86.5869 121.05 85.8873C126.316 85.6254 131.457 84.1874 136.096 81.6782C144.378 77.3201 148.663 70.3754 149.107 61.1737C149.597 51.032 144.684 41.688 132.891 39.339C123.039 37.3765 113.873 39.0326 106.055 45.7017C103.507 47.8748 101.289 50.4328 98.905 52.8003C98.1765 53.6452 97.3495 54.3997 96.4418 55.0481C93.9674 56.5222 91.0657 55.5768 90.1107 52.8734C89.6867 51.6357 89.6533 50.297 90.0155 49.0398C91.3374 44.9705 90.7992 41.0923 89.3796 37.2212C87.5576 32.1465 84.7517 27.4813 81.1228 23.4933C70.735 12.1773 57.8018 8.50296 42.9509 11.5766C37.0583 12.7961 32.0065 16.0704 27.2645 19.7321C11.3936 31.9866 7.90251 49.2089 12.0059 65.5662C14.332 74.8306 19.5537 82.0346 29.0162 85.2946C32.5064 86.4983 36.083 87.4369 39.7147 88.1011C47.7154 89.5602 55.8127 89.3016 63.9008 89.0672Z" fill="black"/>
<path d="M76.3013 112.311C73.6162 112.297 71.2587 110.067 71.2554 107.537C71.3249 106.139 71.9143 104.817 72.908 103.83C73.9011 102.842 75.2269 102.262 76.6262 102.201C77.9146 102.26 79.1301 102.816 80.0188 103.75C80.9075 104.685 81.4004 105.927 81.3938 107.217C81.3846 108.565 80.8458 109.855 79.8921 110.809C78.9391 111.763 77.6494 112.302 76.3013 112.311Z" fill="black"/>
<path d="M28.4236 136.315C25.6748 136.353 23.0955 134.182 23.0607 131.802C23.024 129.338 25.4754 127.173 28.2852 127.188C30.9302 127.201 33.1799 129.252 33.2292 131.693C33.279 134.145 31.0575 136.279 28.4236 136.315Z" fill="black"/>
<path d="M100.644 112.697C100.654 111.419 101.171 110.198 102.081 109.301C102.991 108.404 104.221 107.905 105.498 107.915C106.776 107.925 107.998 108.442 108.895 109.352C109.792 110.262 110.29 111.492 110.28 112.769C110.22 114.066 109.66 115.288 108.718 116.18C107.776 117.072 106.524 117.564 105.227 117.553C103.985 117.488 102.816 116.947 101.963 116.043C101.109 115.139 100.637 113.94 100.644 112.697Z" fill="black"/>
<path d="M122.991 132.319C120.282 132.344 117.884 130.063 117.945 127.518C118.002 126.336 118.495 125.216 119.329 124.375C120.163 123.534 121.278 123.032 122.461 122.966C125.204 122.884 127.938 125.304 127.914 127.793C127.891 130.23 125.645 132.294 122.991 132.319Z" fill="black"/>
<path d="M130.952 108.952C128.298 108.986 126.329 107.142 126.382 104.671C126.436 102.15 128.791 100.038 131.583 100.01C134.254 99.9799 136.163 101.783 136.127 104.301C136.089 106.864 133.811 108.916 130.952 108.952Z" fill="black"/>
<path d="M74.2587 148.011C73.6437 148.004 73.0359 147.874 72.4715 147.63C71.907 147.386 71.3964 147.032 70.9698 146.589C70.5432 146.145 70.2091 145.621 69.9866 145.048C69.7647 144.474 69.6591 143.862 69.6755 143.247C69.7195 140.512 71.5401 138.98 74.6197 139.081C77.2312 139.167 79.214 141.073 79.1944 143.472C79.1747 145.87 76.7882 148.058 74.2587 148.011Z" fill="black"/>
<path d="M47.8073 143.034C47.854 144.271 47.419 145.478 46.5943 146.401C45.7696 147.325 44.6192 147.892 43.3848 147.985C42.7985 148.017 42.2119 147.926 41.6634 147.716C41.1149 147.507 40.6168 147.184 40.2014 146.769C39.7861 146.355 39.463 145.857 39.2531 145.308C39.0433 144.76 38.9512 144.174 38.9833 143.587C39.0194 140.852 40.9446 138.648 43.3671 138.566C43.9531 138.564 44.5338 138.679 45.0752 138.903C45.6167 139.127 46.1082 139.456 46.5213 139.872C46.9344 140.288 47.2606 140.781 47.4814 141.324C47.7021 141.867 47.8131 142.448 47.8073 143.034Z" fill="black"/>
<path d="M94.2422 130.332C94.2022 131.579 93.6725 132.76 92.7687 133.619C91.8643 134.479 90.6586 134.948 89.4109 134.926C88.2 134.839 87.0717 134.28 86.2697 133.369C85.467 132.458 85.0541 131.269 85.1204 130.057C85.1861 128.844 85.7262 127.706 86.6228 126.889C87.52 126.071 88.7021 125.638 89.915 125.683C91.1016 125.737 92.2194 126.254 93.028 127.123C93.8373 127.993 94.2737 129.144 94.2422 130.332Z" fill="black"/>
<path d="M64.671 131.286C64.6967 131.898 64.5967 132.51 64.3771 133.082C64.1575 133.654 63.8228 134.176 63.3939 134.615C62.9649 135.053 62.4509 135.399 61.8831 135.631C61.3154 135.863 60.7061 135.976 60.093 135.964C57.589 135.93 55.6462 133.751 55.7059 131.045C55.7336 129.92 56.1878 128.848 56.9766 128.046C57.7654 127.244 58.8297 126.771 59.9538 126.724C60.5666 126.7 61.1778 126.801 61.7507 127.019C62.3237 127.238 62.8463 127.57 63.2872 127.997C63.728 128.423 64.078 128.934 64.3158 129.499C64.5537 130.064 64.6745 130.672 64.671 131.286Z" fill="black"/>
<path d="M20.84 99.3393C21.4008 99.3202 21.9598 99.4167 22.4821 99.6222C23.0043 99.8276 23.4787 100.137 23.8764 100.533C24.2743 100.929 24.5867 101.402 24.7947 101.923C25.0025 102.445 25.1015 103.003 25.0853 103.564C25.038 106.111 22.6162 108.309 19.9003 108.273C19.3671 108.296 18.8349 108.208 18.3374 108.015C17.8398 107.822 17.3876 107.529 17.009 107.153C16.6303 106.777 16.3334 106.327 16.1369 105.831C15.9404 105.335 15.8485 104.803 15.8671 104.27C15.9315 102.976 16.4772 101.753 17.3973 100.84C18.3175 99.928 19.5453 99.3924 20.84 99.3393Z" fill="black"/>
<path d="M46.4313 113.871C46.5134 116.224 44.7719 118.027 42.2667 118.182C41.6561 118.232 41.042 118.157 40.4614 117.961C39.8808 117.766 39.3459 117.454 38.8895 117.046C38.4331 116.637 38.0647 116.14 37.8066 115.584C37.5485 115.029 37.4063 114.427 37.3884 113.814C37.3444 111.423 38.8933 109.602 41.069 109.486C43.7679 109.343 46.3499 111.452 46.4313 113.871Z" fill="black"/>
<path d="M106.675 139.169C107.177 139.171 107.674 139.275 108.135 139.474C108.596 139.673 109.012 139.963 109.358 140.327C109.704 140.691 109.973 141.122 110.148 141.592C110.323 142.063 110.402 142.564 110.378 143.067C110.349 145.923 108.676 147.982 106.403 147.958C104.13 147.934 102.202 145.71 102.225 143.164C102.248 140.83 104.165 139.108 106.675 139.169Z" fill="black"/>
</g>
<defs>
<clipPath id="clip0">
<rect width="159.49" height="147.676" fill="white" transform="translate(0.734375 0.40625)"/>
</clipPath>
</defs>
</svg>

<svg xmlns="http://www.w3.org/2000/svg" width="161" height="149" fill="none" viewBox="0 0 161 149"><g fill="#000" clip-path="url(#a)"><path d="M99.94 37.779c1.239-.862 2.318-1.641 3.425-2.38 11.185-7.459 23.267-8.942 36.007-5.06 15.463 4.713 21.812 19.918 20.503 32.152-1.11 10.388-6.235 18.772-13.748 25.774-2.922 2.724-6.685 4.234-10.527 5.005-7.01 1.406-14.072 2.674-21.171 3.486-18.088 2.067-36.286 1.974-54.46 2.26-8.542.131-17.065-.017-25.405-2.153-2.49-.638-4.977-1.34-7.389-2.22C16.575 90.777 9.094 83.676 5.051 73.1-1.304 56.48-.426 40.262 9.2 25.236 17.23 12.705 28.784 3.993 43.644 1.431 62.339-1.792 78.15 4.259 90.289 19.035a47.7 47.7 0 0 1 8.769 16.488c.217.711.54 1.39.882 2.256M63.9 89.067c4.375-.17 8.755-.262 13.124-.525 14.676-.877 29.338-1.955 44.026-2.655a35.3 35.3 0 0 0 15.046-4.209c8.282-4.358 12.567-11.303 13.011-20.504.49-10.142-4.423-19.486-16.216-21.835-9.852-1.962-19.018-.306-26.836 6.363-2.548 2.173-4.766 4.73-7.15 7.098a14 14 0 0 1-2.463 2.248c-2.475 1.474-5.376.529-6.331-2.175a6.4 6.4 0 0 1-.096-3.833c1.322-4.07.784-7.948-.635-11.819a41 41 0 0 0-8.257-13.728C70.735 12.177 57.802 8.503 42.95 11.577c-5.893 1.22-10.944 4.493-15.686 8.155C11.394 31.987 7.903 49.21 12.005 65.566c2.327 9.265 7.549 16.469 17.011 19.729A73 73 0 0 0 39.715 88.1c8 1.46 16.098 1.2 24.186.966m12.4 23.245c-2.685-.014-5.042-2.244-5.046-4.774a5.62 5.62 0 0 1 1.653-3.707 5.62 5.62 0 0 1 3.718-1.629 5 5 0 0 1 4.768 5.016 5.13 5.13 0 0 1-5.093 5.094m-47.877 24.004c-2.75.038-5.328-2.133-5.363-4.513-.037-2.464 2.414-4.629 5.224-4.614 2.645.013 4.895 2.064 4.944 4.505.05 2.452-2.171 4.586-4.805 4.622m72.22-23.618a4.82 4.82 0 0 1 4.854-4.782 4.815 4.815 0 0 1 4.782 4.854 5.016 5.016 0 0 1-5.053 4.784 4.835 4.835 0 0 1-4.583-4.856m22.347 19.622c-2.709.025-5.107-2.256-5.046-4.801a4.79 4.79 0 0 1 4.516-4.552c2.743-.082 5.477 2.338 5.453 4.827-.023 2.437-2.269 4.501-4.923 4.526m7.961-23.367c-2.654.034-4.623-1.81-4.57-4.281.054-2.521 2.409-4.633 5.201-4.661 2.671-.03 4.58 1.773 4.544 4.291-.038 2.563-2.316 4.615-5.175 4.651m-56.693 39.059a4.64 4.64 0 0 1-4.584-4.764c.044-2.735 1.865-4.267 4.945-4.166 2.611.086 4.594 1.992 4.574 4.391s-2.406 4.586-4.935 4.539m-26.452-4.977a4.783 4.783 0 0 1-4.422 4.951 4.177 4.177 0 0 1-4.402-4.398c.036-2.735 1.962-4.939 4.384-5.021a4.43 4.43 0 0 1 4.44 4.468m46.435-12.702a4.745 4.745 0 0 1-4.831 4.594 4.626 4.626 0 0 1-4.29-4.869 4.63 4.63 0 0 1 4.795-4.374 4.533 4.533 0 0 1 4.326 4.649m-29.571.954a4.49 4.49 0 0 1-4.578 4.678c-2.504-.034-4.447-2.213-4.387-4.919a4.43 4.43 0 0 1 4.248-4.321 4.55 4.55 0 0 1 3.333 1.273 4.54 4.54 0 0 1 1.384 3.289M20.84 99.34a4.1 4.1 0 0 1 3.036 1.193 4.1 4.1 0 0 1 1.21 3.031c-.048 2.547-2.47 4.745-5.186 4.709a3.86 3.86 0 0 1-2.891-1.12 3.87 3.87 0 0 1-1.142-2.883 5.196 5.196 0 0 1 4.973-4.93m25.591 14.531c.082 2.353-1.66 4.156-4.164 4.311a4.52 4.52 0 0 1-4.46-2.598 4.5 4.5 0 0 1-.419-1.77c-.044-2.391 1.505-4.212 3.681-4.328 2.699-.143 5.28 1.966 5.362 4.385m60.244 25.298a3.723 3.723 0 0 1 3.703 3.898c-.029 2.856-1.702 4.915-3.975 4.891s-4.201-2.248-4.178-4.794c.023-2.334 1.94-4.056 4.45-3.995"/></g><defs><clipPath id="a"><path fill="#fff" d="M.734.406h159.49v147.676H.734z"/></clipPath></defs></svg>
